X: 88
T:New Year's Night (#284)
M:4/4
L:1/8
S:Capt. F. O'Neill
R:Reel
K:G
gf|eA (3AGA edBd|(3efg dB GABd|1eA (3AAA edBc|d2 ef g2:|
2edef gfga|gedBA2||BA|G2 Bd g2 ge|
dedB d2 BA|G2 Bd g2 af|gedB AcBA|
G2 Bd g2 ge|dedB dega|bgag (3efg fa|gedB A2||
%
% This reel memorized probably from "Barney" Delaney's wonderful
% piping seems to have been omitted from former O'Neill collections.

